Origami/48x48/apps/fontypython.svg

<svg width="48" height="48" version="1" xmlns="http://www.w3.org/2000/svg">
 <rect transform="matrix(0,-1,-1,0,0,0)" x="-44" y="-44" width="40" height="40" rx="2" ry="2" style="fill:#6493a6"/>
 <path d="m4 7v-1c0-1.108 0.892-2 2-2h36c1.108 0 2 0.892 2 2v1c0-1.108-0.892-2-2-2h-36c-1.108 0-2 0.892-2 2z" fill="#fff" opacity=".2"/>
 <path d="m4 42v1c0 1.108 0.892 2 2 2h36c1.108 0 2-0.892 2-2v-1c0 1.108-0.892 2-2 2h-36c-1.108 0-2-0.892-2-2z" opacity=".2"/>
 <path d="m24 11v4h2c2.285189 0 4 1.714811 4 4v4c0 2.285189-1.714811 4-4 4h-2v4h2c4.432 0 8-3.568 8-8v-4c0-4.432-3.568-8-8-8h-2z" style="opacity:.2"/>
 <path d="m24 10v4h2c2.285189 0 4 1.714811 4 4v4c0 2.285189-1.714811 4-4 4h-2v4h2c4.432 0 8-3.568 8-8v-4c0-4.432-3.568-8-8-8h-2z" style="fill:#ffffff"/>
 <path d="m22 11c-4.432 0-8 3.568-8 8v4 4 4 6.355469 1.644531c0 1.108 0.892 2 2 2s2-0.892 2-2v-8h4 2v-4h-2c-2.285189 0-4-1.714811-4-4v-4c0-2.285189 1.714811-4 4-4h2v-4h-2z" style="opacity:.2"/>
 <path d="m22 10c-4.432 0-8 3.568-8 8v4 4 4 6.355469 1.644531c0 1.108 0.892 2 2 2s2-0.892 2-2v-8h4 2v-4h-2c-2.285189 0-4-1.714811-4-4v-4c0-2.285189 1.714811-4 4-4h2v-4h-2z" style="fill:#3f3f3f"/>
</svg>

<svg xmlns="http://www.w3.org/2000/svg" width="48" height="48" version="1">
 <rect style="fill:#6493a6" width="40" height="40" x="-44" y="-44" rx="2" ry="2" transform="matrix(0,-1,-1,0,0,0)"/>
 <path fill="#fff" opacity=".2" d="m4 7v-1c0-1.108 0.892-2 2-2h36c1.108 0 2 0.892 2 2v1c0-1.108-0.892-2-2-2h-36c-1.108 0-2 0.892-2 2z"/>
 <path opacity=".2" d="m4 42v1c0 1.108 0.892 2 2 2h36c1.108 0 2-0.892 2-2v-1c0 1.108-0.892 2-2 2h-36c-1.108 0-2-0.892-2-2z"/>
 <path style="opacity:0.2" d="m 24,11 0,4 2,0 c 2.285189,0 4,1.714811 4,4 l 0,4 c 0,2.285189 -1.714811,4 -4,4 l -2,0 0,4 2,0 c 4.432,0 8,-3.568 8,-8 l 0,-4 c 0,-4.432 -3.568,-8 -8,-8 l -2,0 z"/>
 <path style="fill:#ffffff" d="M 24 10 L 24 14 L 26 14 C 28.285189 14 30 15.714811 30 18 L 30 22 C 30 24.285189 28.285189 26 26 26 L 24 26 L 24 30 L 26 30 C 30.432 30 34 26.432 34 22 L 34 18 C 34 13.568 30.432 10 26 10 L 24 10 z"/>
 <path style="opacity:0.2" d="m 22,11 c -4.432,0 -8,3.568 -8,8 l 0,4 0,4 0,4 0,6.355469 L 14,39 c 0,1.108 0.892,2 2,2 1.108,0 2,-0.892 2,-2 l 0,-8 4,0 2,0 0,-4 -2,0 c -2.285189,0 -4,-1.714811 -4,-4 l 0,-4 c 0,-2.285189 1.714811,-4 4,-4 l 2,0 0,-4 -2,0 z"/>
 <path style="fill:#3f3f3f" d="M 22 10 C 17.568 10 14 13.568 14 18 L 14 22 L 14 26 L 14 30 L 14 36.355469 L 14 38 C 14 39.108 14.892 40 16 40 C 17.108 40 18 39.108 18 38 L 18 30 L 22 30 L 24 30 L 24 26 L 22 26 C 19.714811 26 18 24.285189 18 22 L 18 18 C 18 15.714811 19.714811 14 22 14 L 24 14 L 24 10 L 22 10 z"/>
</svg>
